X:1
T:Title
%%score { ( 1 4 ) | ( 2 3 ) }
L:1/8
M:4/4
K:C
V:1 treble nm="Grand Piano"
V:4 treble 
V:2 bass 
V:3 bass 
V:1
 z4 z2[Q:1/4=90] [CE][DF] | [EG]2 [_EA]A [G,=EG]2 [G,CE][G,DF] | .[G,EG]2 .[_EB]2 [G,=EG]2 [CEG]2 | %3
 A2 AA c2 BA |[M:3/4] [EG]6 |[M:1/4] [CE][DF] |[M:4/4] .[CEG]2 [_EA]2 [=EG]2 [CE]F | %7
 E-[Ec] .[_EB]2 [G,=EG]2 [G,EG][EA] | [EB]2 [Ec][Ec] [EG]2 [_E^F]2 |[M:3/4] E6 |[M:1/4] E2 | %11
[M:4/4] F2 FF [DF]2 [EG]F | z D [_EA]2 [=EG]2 [EG][EG] | z4 z2 .[DB]2 |[M:3/4] d6 |[M:1/4] ed | %16
[M:4/4] .[CEc]2 [FB][FA] [EG]2 FE |[M:9/8] D2 F- F B2- BAA |[M:4/4] GcGF E2[K:bass] z F, | %19
[M:3/4] C6 |] %20
V:2
 z4 z2 [C,G,]2 | [C,G,]2 z _E C,2 C,C, | z[K:treble] c[K:bass] z A C,2 C,2 | %3
 [F,CF]2[K:treble] FF[K:bass] [F,A,F]2 [F,CF]2 |[M:3/4] [C,C]6 |[M:1/4] [C,G,][C,G,] | %6
[M:4/4] z G, [C,^F,]2 [C,G,]2 z D | z G, z A C,2 C,[C,G,] | %8
 [B,,G,]2 [A,,^F,][A,,F,] [B,,G,]2 [B,,A,]2 |[M:3/4] [E,G,]6 |[M:1/4] [E,G,B,]2 | %11
[M:4/4] [D,G,B,]2 [C,G,C][C,G,C] [B,,G,]2 z D | .[C,G,C]2 [C,^F,]2 [C,G,]2 [C,C][C,C] | %13
 F,2 F,F, D,2 z[K:treble] C |[M:3/4] [G,B,F]6 |[M:1/4] GF | %16
[M:4/4][K:bass] z G,[C,A,][C,B,] [C,C]2 [D,G,D][E,G,C] | %17
[M:9/8] [F,A,]2 [F,A,D]- [F,A,D] [^F,A,_E]2- [F,A,E][F,CE][F,CE] | %18
[M:4/4] [G,CE]2 [E,CE][F,A,D] [G,C]2 .[G,,G,]2 |[M:3/4] [C,E,]6 |] %20
V:3
 x8 | z2 [C,^F,]2 z4 | C,2[K:treble][K:bass] [C,^F,]2 z4 | z2[K:treble] [F,C]2[K:bass] z4 | %4
[M:3/4] x6 |[M:1/4] x2 |[M:4/4] C,2 z2 z2 [C,G,]2 | C,2 [C,^F,]2 z4 | x8 |[M:3/4] x6 |[M:1/4] x2 | %11
[M:4/4] z4 z2 [G,,G,]2 | x8 | z4 z2 D,2[K:treble] |[M:3/4] x6 |[M:1/4] [G,B,]2 | %16
[M:4/4][K:bass] C,2 z2 z4 |[M:9/8] x9 |[M:4/4] x8 |[M:3/4] x6 |] %20
V:4
 x8 | x8 | x8 | x8 |[M:3/4] x6 |[M:1/4] x2 |[M:4/4] x8 | .[CG]2 z2 z4 | x8 |[M:3/4] x6 | %10
[M:1/4] x2 |[M:4/4] x8 | E2 z2 z4 | [CFA]2 [CFA][CFA] [D^FA]2 F-[Fc] |[M:3/4] x6 |[M:1/4] x2 | %16
[M:4/4] x8 |[M:9/8] x9 |[M:4/4] z4 z2[K:bass] [B,D]2 |[M:3/4] x6 |] %20

